X:1
T:Si bella vi formo
T:Si bella vi formo
T:Jhan Gero
T:Source : Trium vocum cantiones---Nürnberg---J.Petreius---1541. Editor : André Vierendeels (27/09/16).
T:Notes : Original clefs : C3, C4, F4 Editorial accidentala above the staff Original note values have been halved Square brackets indicate ligatures m 58 in B : "C" notated as "D" in original print 
T:©
T:©
T:©
T:©
T:©
C:Jhan Gero
Z:©
%%score [ 1 2 3 ]
L:1/8
Q:1/4=120
M:2/2
K:F
V:1 treble-8 nm="Tenor 1" snm="T 1"
V:2 treble-8 nm="Tenor 2" snm="T 2"
V:3 bass nm="Bass" snm="B"
V:1
 z8 | A4 d4- | d2 c2 B2 B2 | A2 d2 f3 e | d4 c4 | B2 A4 G2 | A2 d4 c2 | d4 z2 d2 | f2 f2 e2 c2 | %9
w: |Si bel-|* la vi for-|mo don- * *|* na|na- tu- *||ra, ch'al|ciel in- vi- dia|
 g4 d4 | z2 d2 f2 f2 | e2 c2 g4 | d8 | z2 f2 e2 f2 | e2 f2 e2 f2 | e2 f4 e2 | d4 c4 | e4 g3 f | %18
w: fa- te,|ch'al ciel in-|vi- dia fa-|te,|et a qua-|lon- que bell' al-|tra fi- *|gu- ra,|for- ma- ta|
 e2 e2 d2 f2- | f efd ef g2- | g2 f2 g4- | g4 z2 d2 | f4 e4 | d4 d4- | d4 c4 | d8 | z2 d2 f4 | %27
w: qua giu'n ter- r'a|_ no- * * str'e- * ta-|* * de,|_ ma|se di|cru- del-|* ta-|de,|pri- va|
 e4 d4 | d8 | c4 d4- | d2 d2 c2 d2 | B4 A4 | d4 d4- | d2 d2 edcB | AG c3 B B2- | B2 A2 B2 A2 | %36
w: vi ri-|tro-|vast' e'an-|* chor d'or- go-|glio, dir'|ei quel|_ dir _ _ _ _|_ _ non _ so-|* gli- o, non|
 B4 c4 | B4 z2 c2 | c2 c2 c2 c2 | d6 f2 | e2 a3 g g2- | g2 f2 g4- | g8- | g4 z4 | g4 f4 | e4 d4 | %46
w: so- *|glio, ch'al|mon- do non fia-|mai si-|mil bel- * ta-|* * de,|_||s'el ciel|e la|
 c4 B4 | A4 G4 | g4 g2 g2 | e2 e2 f4- | f2 f2 e2 g2- |"^#" g2 f2 g4 | z2 g2 g2 g2 | e2 e2 f4- | %54
w: na- tu-|* ra,|po- ness' in|un sug- gett'|_ o- gni lor|_ cu- ra,|po- mess' in|un sug- gett'|
 f2 f2 e2 g2- |"^#" g2 f2 g4- | g8- | g8- | g8 |] %59
w: _ o- ogni lor|_ cu- ra.|_|||
V:2
 E4 F4- | F2 E2 F2 G2 | A4 d4 | f3 e d2 c2 | B4 A3 G | F2 G3 FED | E2 F2 E4 | D8 | A4 c2 c2 | %9
w: Si bel-|* la vi for-|mo don-|na _ _ na-|tu- * *|||ra,|ch'al ciel in-|
 B2 G2 B4 | F4 z2 A2 | c2 c2 B2 G2 | B4 A4 | z2 d2 c2 d2 | G2 d2 c2 d2 | G2 F3 G A2- | A2 G2 A4 | %17
w: vi- dia fa-|te, ch'al|clien in- vi- dia|fa- te,|et a qual-|con- que bell' al-|tra fi- * gu-|* * ra,|
 c4 d2 d2 | c3 B A4 | B4 c3 B | A4 G4 | z2 d2 d4 | c4 B4- | B4 A4 | G8 | A4 z2 d2 | d4 c4 | B8 | %28
w: for- ma- ta|qua gi'un ter-|r'a no- str'e-|ta- de,|ma se|di cru-|* del-|ta-|de, pri-|va vi|ri-|
 A4 G4- | G4 A4 | B4 A2 F2 | G4 F4- | F4 z4 | z8 | c4 d2 d2 | e3 d/c/ d2 c2 | cB B4 A2 | B4 z2 A2 | %38
w: tro vast'|_ e'an-|chor d'or- *|go- glio,|_||dir' ei quel|dir _ _ _ non|so- * gli- *|o; ch'al|
 A2 A2 A2 A2 | B8 | c4 B2 c2 | A4 G4 | d4 c4 | B4 A4 | G4 A2 F2 | G2 A4 G2- | G2 F2 G4 | D4 d4 | %48
w: mon- do non fia-|mai|si- mil' bel-|ta- de,|s'el ciel|e la|na- tu- *|||ra, po-|
 d2 d2 B4 | c4 d4 | d4 c3 B | A4 G4 | z2 d2 B2 B2 | c2 c2 d4 | d4 c3 B | A4 G4 | E4 E2 E2 | %57
w: nes- s'in un|sug- gett'|o- gni lor|cu- ra,|po- ness' in|un sug- gett'|o- gni lor|cu- ra,|o- gni lor|
 E4 D4- | D8 |] %59
w: cu- ra.|_|
V:3
 A,,4 D,4- |"^#" D,2 C,2 B,,2 B,,2 | A,,2 A,,2 B,,3 C, | D,4 D,4 | z2 D,2 F,3 E, | D,2 C,2 B,,4 | %6
w: Si bel-|* la vi for-|mo don- na na-|tu- ra,|don- na na-|tu- * *|
 A,,8 | z2 G,,2 B,,2 B,,2 | A,,2 F,,2 C,4 | G,,4 z2 G,,2 | B,,2 B,,2 A,,2 F,,2 | C,4 G,,4- | %12
w: ra,|ch'al ciel in|vi- dia fa-|te, ch'al|cien in- vi- dia|fa- te,|
 G,,4 D,4 | C,2 D,2 A,,2 D,2 | C,2 D,2 A,,2 D,2 | C,2 D,4 C,2 | B,,4 A,,4 | A,4 G,2 G,2 | %18
w: _ et|q qual- con- que|bell' al- tra fi-|gu- * *|* ra,|for- ma- ta|
 A,2 A,2 D,4 | D,4 C,2 C,2 | D,4 G,,4 | G,4 B,4 | A,4 G,4- | G,4 F,4 | E,8 | D,4 G,4 | B,4 A,4 | %27
w: qua giu'un terr'|r'a no- str'e-|ta- de,|ma se|di cru-|* del-|ta-|de, pri-|va vi|
 G,8 | F,4 E,4- | E,4 D,4 | G,,4 A,,2 B,,2 | G,,4 D,4- | D,4 G,4 | G,6 E,2 | F,3 E, D,2 B,,2 | %35
w: ri-|tro- vast'|_ e'an-|chor d'or- go-|glio, dir'|_ ei|quel dir|no _ _ so-|
 C,4 B,,2 F,2 | G,4 F,4 | B,,4 z2 F,2 | F,2 F,2 F,2 F,2 | B,,4 D,4 | C,3 D, _E,2 C,2 | D,4 G,,4- | %42
w: gli- o, non|so- gli-|o, ch'al|mon- do non fia-|mai si-|mil _ _ bel-|ta- de,|
 G,,4 z4 | G,4 F,4 | E,4 D,4 | C,4 B,,4 | A,,4 G,,2 G,2- | G,2 F,2 G,4 | G,4 G,2 G,2 | %49
w: _|s'el ciel|e la|na tu-|* ra, na-|* tu- ra,|po- ness' in|
 C,2 E,2 D,4 | B,,4 C,2 C,2 | D,4 G,,4 | G,4 G,2 G,2 | C,2 E,2 D,4 | B,,4 C,2 C,2 | D,4 G,,4 | %56
w: un sug- gett'|o- gni lor|cu- ra,|po- ness' in|un sug- gett'|o- gni lor|cu- ra,|
 C,4 C,2 C,2 | C,4 G,,4- | G,,8 |] %59
w: o- gni lor|cu- ra.|_|

